X:1
T:Title
%%score { ( 1 3 ) | ( 2 4 ) }
L:1/8
Q:1/4=94
M:4/4
K:A
V:1 treble nm="Grand Piano"
V:3 treble 
V:2 bass 
V:4 bass 
V:1
 [Ec]3 [Ec] [Fd]2 [Ec]2 | [^Dc]3 [DB] [EB]4 | [Ge]3 B B2 B2 | d3 c c4 | A3 A [^EG]2 [EG]2 | %5
w: Harry~W.~Miller * * *|||||
 [Ec]2 [EB]2 [FA]4 | [^DA]3 [DA] G2 F2 | B2 B2 B4 | d3 d c2 B2 | B2 A2 G2 F2 | E2 A2 B2 c2 | %11
w: ||||||
 z4 A4[Q:1/4=93][Q:1/4=91][Q:1/4=90][Q:1/4=88][Q:1/4=87][Q:1/4=86][Q:1/4=84][Q:1/4=83][Q:1/4=82][Q:1/4=80][Q:1/4=79][Q:1/4=77][Q:1/4=76][Q:1/4=75][Q:1/4=73][Q:1/4=72] |] %12
w: |
V:2
 [A,,A,]3 [A,,A,] [A,,A,]2 [A,,A,]2 | [B,,A,]3 [B,,A,] [E,G,]4 | %2
 [E,B,]3 [E,G,E] [E,G,E]2 [E,G,E]2 | [A,F]3 [A,E] [A,E]4 | [F,CF]3 [F,CF][K:bass] [C,C]2 [C,C]2 | %5
 [C,G,]2 [C,C]2 [F,C]4 | [B,,B,]3 [B,,B,] [B,^D]2 [A,B,D]2 | [G,B,E]2 [F,A,^D]2 [E,G,E]4 | %8
 [E,B,E]3 [E,B,E] [E,A,E]2 [E,G,D]2 | [F,A,C]2 [F,A,C]2 [^D,A,=C]4 | %10
 [E,A,C]2 [E,A,C]2 [E,G,D]2 [E,A,E]2 | [E,G,D]3 [E,G,D] z F, E,2 |] %12
V:3
 x8 | x8 | x8 | x8 | x8 | x8 | x8 | x8 | x8 | x8 | x8 | B3 E [A,C]D C2 |] %12
V:4
 x8 | x8 | x8 | x8 | x4[K:bass] x4 | x8 | x8 | x8 | x8 | x8 | x8 | z4 A,,4 |] %12

